assets/images/bellSlash.svg

<svg xmlns="http://www.w3.org/2000/svg" xmlns:xlink="http://www.w3.org/1999/xlink" id="Layer_1" x="0" y="0" version="1.1" viewBox="0 0 20 20" style="enable-background:new 0 0 20 20" xml:space="preserve"><path d="M4.01871 6.52266C4.00632 6.68014 4 6.83933 4 7V8.93133C4 9.30295 3.89557 9.6671 3.69861 9.98223L1.67719 13.2165C1.5614 13.4018 1.5 13.6158 1.5 13.8343C1.5 14.4781 2.02189 15 2.66569 15H11.9309L4.01871 6.52266ZM17.4007 14.9981C18.0136 14.9637 18.5 14.4558 18.5 13.8343C18.5 13.6158 18.4386 13.4018 18.3228 13.2165L16.3014 9.98223C16.1044 9.6671 16 9.30295 16 8.93133V7C16 3.68629 13.3137 1 10 1C8.40064 1 6.94744 1.62577 5.87188 2.64583L17.4007 14.9981ZM2.31769 1.76895C2.72144 1.39211 3.35423 1.41393 3.73106 1.81769L17.7311 16.8177C18.1079 17.2214 18.0861 17.8542 17.6823 18.2311C17.2786 18.6079 16.6458 18.5861 16.2689 18.1823L2.26895 3.18232C1.89211 2.77857 1.91393 2.14578 2.31769 1.76895ZM10 19C8.51353 19 7.27954 17.9189 7.0415 16.5H12.9585C12.7205 17.9189 11.4865 19 10 19Z"/></svg>

<svg xmlns="http://www.w3.org/2000/svg" xml:space="preserve" viewBox="0 0 20 20"><path d="M4.019 6.523A6 6 0 0 0 4 7v1.931c0 .372-.104.736-.301 1.051l-2.022 3.235A1.166 1.166 0 0 0 2.666 15h9.265zM17.4 14.998a1.166 1.166 0 0 0 .922-1.781L16.3 9.982a2 2 0 0 1-.3-1.05V7A6 6 0 0 0 5.872 2.646zM2.318 1.77a1 1 0 0 1 1.413.049l14 15a1 1 0 0 1-1.462 1.364l-14-15a1 1 0 0 1 .049-1.413M10 19a3 3 0 0 1-2.958-2.5h5.917A3 3 0 0 1 10 19"/></svg>
